src/assets/icons/icon-fr_1.svg

<svg fill="none" viewBox="0 0 1600 896" xmlns="http://www.w3.org/2000/svg"><g clip-path="url(#a)"><path d="M1576.9 398.66l22.1 40.171-26.42-36.678-22.58-14.409-28.34-17.903-13.45 1.747-7.68-19.649-17.78-10.917-12.01-39.734-35.54-13.973-38.91.873-59.57 16.156h-30.34l-22.98 17.903-4.8 9.606-9.61 9.169v11.353l-16.81 13.1v20.959l-19.21 9.975 19.21 25.393v24.016l21.62 27.509v49.341l-19.7 30.565 12.49 51.524v9.607l14.89 27.945-12.97 9.606-6.24 14.41v10.042l-8.17 7.423 19.7 17.03 2.88 13.972 8.16 4.367 3.85 11.353-7.21 20.085 3.36-16.592-11.04-13.1-7.21-6.113 1.92-10.479-23.06-20.523 8.65-10.479-3.36-8.733 5.76-12.663 7.69-14.409-10.09-23.142 2.4-18.776-11.05-46.285 23.54-22.706-4.8-51.087-24.5-29.692v-16.593l-18.84-20.383-11.42-12.365 13.19-1.6.74-7.57 4.13-3.668 15.56-13.798 1.92-17.466 16.34-11.353v-11.789l27.02-24.889h-9.73l-13.45-28.382-36.99-31.875 24.02-38.425-21.53-62.22-22.18 2.836-21.14-12.226-41.31-22.269-2.88-15.72-18.74-7.423-13.93-20.522h-15.85l-22.1-20.959-30.74 6.55 23.54-10.48-14.41-20.96 2.88-22.268 4.8 22.269 9.61 15.719h7.69l18.73 20.086 19.69 7.423 13.46 20.959 12.96 2.183 12.97 7.423v9.607l21.62 15.282 36.03 18.339 17.14-2.097-.33-.96 8.17-10.042 42.27-10.916-5.29-23.58 16.34 29.256-44.2 10.043 15.86 80.343-24.98 32.749 42.27 24.889 11.05 19.212 31.22 8.733 60.05-17.03h55.24l35.56 15.76 7.67-3.096 54.76-48.905 14.89 3.493 21.62-29.255-13.93 22.706 24.98 5.676 3.84 7.86-6.24-6.987-22.1-3.93-8.17 10.043-14.89-6.113-56.42 55.076 17.03 28.76 16.81 11.79 12.01 13.536 26.42 24.889 26.9 17.466z" fill="#fff"/></g><defs><clipPath id="a"><path fill="#fff" d="M0 0h1600v896H0z"/></clipPath></defs></svg>

<svg width="1600" height="896" viewBox="0 0 1600 896" fill="none" xmlns="http://www.w3.org/2000/svg">
<g clip-path="url(#clip0)">
<path d="M1576.9 398.659L1599 438.83L1572.58 402.152L1550 387.743L1521.66 369.84L1508.21 371.587L1500.53 351.938L1482.75 341.021L1470.74 301.287L1435.2 287.314L1396.29 288.187L1336.72 304.343H1306.38L1283.4 322.246L1278.6 331.852L1268.99 341.021V352.374L1252.18 365.474V386.433L1232.97 396.408L1252.18 421.801V445.817L1273.8 473.326V522.667L1254.1 553.232L1266.59 604.756V614.363L1281.48 642.308L1268.51 651.914L1262.27 666.324V676.366L1254.1 683.789L1273.8 700.819L1276.68 714.791L1284.84 719.158L1288.69 730.511L1281.48 750.596L1284.84 734.004L1273.8 720.904L1266.59 714.791L1268.51 704.312L1245.45 683.789L1254.1 673.31L1250.74 664.577L1256.5 651.914L1264.19 637.505L1254.1 614.363L1256.5 595.587L1245.45 549.302L1268.99 526.596L1264.19 475.509L1239.69 445.817V429.224L1220.85 408.841L1209.43 396.476L1222.62 394.876L1223.36 387.306L1227.49 383.638L1243.05 369.84L1244.97 352.374L1261.31 341.021V329.232L1288.33 304.343H1278.6L1265.15 275.961L1228.16 244.086L1252.18 205.661L1230.65 143.441L1208.47 146.277L1187.33 134.051L1146.02 111.782L1143.14 96.0624L1124.4 88.6394L1110.47 68.117H1094.62L1072.52 47.1579L1041.78 53.7076L1065.32 43.2281L1050.91 22.269L1053.79 0L1058.59 22.269L1068.2 37.9883H1075.89L1094.62 58.0741L1114.31 65.4971L1127.77 86.4561L1140.73 88.6394L1153.7 96.0624V105.669L1175.32 120.951L1211.35 139.29L1228.49 137.193L1228.16 136.234L1236.33 126.191L1278.6 115.275L1273.31 91.6959L1289.65 120.951L1245.45 130.994L1261.31 211.337L1236.33 244.086L1278.6 268.975L1289.65 288.187L1320.87 296.92L1380.92 279.891H1436.16L1471.72 295.651L1479.39 292.554L1534.15 243.649L1549.04 247.142L1570.66 217.887L1556.73 240.593L1581.71 246.269L1585.55 254.129L1579.31 247.142L1557.21 243.212L1549.04 253.255L1534.15 247.142L1477.73 302.218L1494.76 330.979L1511.57 342.768L1523.58 356.304L1550 381.193L1576.9 398.659Z" fill="white"/>
</g>
<defs>
<clipPath id="clip0">
<rect width="1600" height="896" fill="white"/>
</clipPath>
</defs>
</svg>
